Suru++-Asprómauros/apps/16/python.svg

<svg xmlns="http://www.w3.org/2000/svg" width="16" height="16" version="1.1">
 <defs>
   <style id="current-color-scheme" type="text/css">
   .ColorScheme-Text { color: #ececec; } .ColorScheme-Highlight { color:#5294e2; }
  </style>
  <linearGradient id="arrongin" x1="0%" x2="0%" y1="0%" y2="100%">
   <stop offset="0%" style="stop-color:#dd9b44; stop-opacity:1"/>
   <stop offset="100%" style="stop-color:#ad6c16; stop-opacity:1"/>
  </linearGradient>
  <linearGradient id="aurora" x1="0%" x2="0%" y1="0%" y2="100%">
   <stop offset="0%" style="stop-color:#09D4DF; stop-opacity:1"/>
   <stop offset="100%" style="stop-color:#9269F4; stop-opacity:1"/>
  </linearGradient>
  <linearGradient id="cyberneon" x1="0%" x2="0%" y1="0%" y2="100%">
    <stop offset="0" style="stop-color:#0abdc6; stop-opacity:1"/>
    <stop offset="1" style="stop-color:#ea00d9; stop-opacity:1"/>
  </linearGradient>
  <linearGradient id="fitdance" x1="0%" x2="0%" y1="0%" y2="100%">
   <stop offset="0%" style="stop-color:#1AD6AB; stop-opacity:1"/>
   <stop offset="100%" style="stop-color:#329DB6; stop-opacity:1"/>
  </linearGradient>
  <linearGradient id="oomox" x1="0%" x2="0%" y1="0%" y2="100%">
   <stop offset="0%" style="stop-color:#efefe7; stop-opacity:1"/>
   <stop offset="100%" style="stop-color:#8f8f8b; stop-opacity:1"/>
  </linearGradient>
  <linearGradient id="rainblue" x1="0%" x2="0%" y1="0%" y2="100%">
   <stop offset="0%" style="stop-color:#00F260; stop-opacity:1"/>
   <stop offset="100%" style="stop-color:#0575E6; stop-opacity:1"/>
  </linearGradient>
  <linearGradient id="sunrise" x1="0%" x2="0%" y1="0%" y2="100%">
   <stop offset="0%" style="stop-color: #FF8501; stop-opacity:1"/>
   <stop offset="100%" style="stop-color: #FFCB01; stop-opacity:1"/>
  </linearGradient>
  <linearGradient id="telinkrin" x1="0%" x2="0%" y1="0%" y2="100%">
   <stop offset="0%" style="stop-color: #b2ced6; stop-opacity:1"/>
   <stop offset="100%" style="stop-color: #6da5b7; stop-opacity:1"/>
  </linearGradient>
  <linearGradient id="60spsycho" x1="0%" x2="0%" y1="0%" y2="100%">
   <stop offset="0%" style="stop-color: #df5940; stop-opacity:1"/>
   <stop offset="25%" style="stop-color: #d8d15f; stop-opacity:1"/>
   <stop offset="50%" style="stop-color: #e9882a; stop-opacity:1"/>
   <stop offset="100%" style="stop-color: #279362; stop-opacity:1"/>
  </linearGradient>
  <linearGradient id="90ssummer" x1="0%" x2="0%" y1="0%" y2="100%">
   <stop offset="0%" style="stop-color: #f618c7; stop-opacity:1"/>
   <stop offset="20%" style="stop-color: #94ffab; stop-opacity:1"/>
   <stop offset="50%" style="stop-color: #fbfd54; stop-opacity:1"/>
   <stop offset="100%" style="stop-color: #0f83ae; stop-opacity:1"/>
  </linearGradient>
 </defs>
 <path fill="currentColor" class="ColorScheme-Text" d="m 7.7241376,1.2e-7 c -1.833931,0 -3.3103448,0.73820687 -3.3103448,1.65517238 V 3.3103448 3.862069 H 7.7241376 V 4.4137931 H 4.4137928 3.8620687 3.3103446 1.6551722 C 0.73820675,4.4137931 -1.2e-7,5.8902068 -1.2e-7,7.7241378 v 0.5517241 c 0,1.8339311 0.73820687,3.3103451 1.65517232,3.3103451 H 3.3103446 3.8620687 V 9.9310343 c 0,0 0,-2.2068965 2.2068965,-2.2068965 h 4.4137928 c 0,0 1.103448,0 1.103448,-1.1034482 V 4.4137931 3.3103448 1.6551725 C 11.586206,0.73820699 10.109793,1.2e-7 8.2758617,1.2e-7 Z M 6.0689652,1.1034484 c 0.304709,0 0.5517241,0.2470151 0.5517241,0.5517241 0,0.3047089 -0.2470151,0.5517241 -0.5517241,0.5517241 -0.304709,0 -0.5517241,-0.2470152 -0.5517241,-0.5517241 0,-0.304709 0.2470151,-0.5517241 0.5517241,-0.5517241 z"/>
 <path fill="currentColor" class="ColorScheme-Text" d="m 8.2758617,16 c 1.8339313,0 3.3103443,-0.738207 3.3103443,-1.655173 V 12.689655 12.137931 H 8.2758617 v -0.551724 h 3.3103443 0.551725 0.551724 1.655172 c 0.916965,0 1.655172,-1.476414 1.655172,-3.3103451 V 7.7241378 c 0,-1.833931 -0.738207,-3.3103447 -1.655172,-3.3103447 h -1.655172 -0.551724 v 2.2068965 c 0,1.6551723 -1.655173,1.6551723 -1.655173,1.6551723 H 6.0689652 c -1.6551724,0 -1.6551724,1.6551724 -1.6551724,1.6551724 v 1.6551727 1.103448 1.655172 C 4.4137928,15.261793 5.8902066,16 7.7241376,16 Z M 9.931034,14.344827 c -0.3047089,0 -0.5517241,-0.247015 -0.5517241,-0.551724 0,-0.304709 0.2470152,-0.551724 0.5517241,-0.551724 0.304709,0 0.551724,0.247015 0.551724,0.551724 0,0.304709 -0.247015,0.551724 -0.551724,0.551724 z"/>
</svg>

<svg xmlns="http://www.w3.org/2000/svg" width="16" height="16" version="1.1">
 <defs>
  <style id="current-color-scheme" type="text/css">
   .ColorScheme-Text { color:#ececec; } .ColorScheme-Highlight { color:#5294e2; }
  </style>
  <linearGradient id="arrongin" x1="0%" x2="0%" y1="0%" y2="100%">
   <stop id="stop3" offset="0%" style="stop-color:#dd9b44"/>
   <stop id="stop5" offset="100%" style="stop-color:#ad6c16"/>
  </linearGradient>
  <linearGradient id="aurora" x1="0%" x2="0%" y1="0%" y2="100%">
   <stop id="stop8" offset="0%" style="stop-color:#09D4DF"/>
   <stop id="stop10" offset="100%" style="stop-color:#9269F4"/>
  </linearGradient>
  <linearGradient id="fitdance" x1="0%" x2="0%" y1="0%" y2="100%">
   <stop id="stop13" offset="0%" style="stop-color:#1AD6AB"/>
   <stop id="stop15" offset="100%" style="stop-color:#329DB6"/>
  </linearGradient>
  <linearGradient id="oomox" x1="0%" x2="0%" y1="0%" y2="100%">
   <stop id="stop18" offset="0%" style="stop-color:#efefe7"/>
   <stop id="stop20" offset="100%" style="stop-color:#8f8f8b"/>
  </linearGradient>
  <linearGradient id="rainblue" x1="0%" x2="0%" y1="0%" y2="100%">
   <stop id="stop23" offset="0%" style="stop-color:#00F260"/>
   <stop id="stop25" offset="100%" style="stop-color:#0575E6"/>
  </linearGradient>
  <linearGradient id="sunrise" x1="0%" x2="0%" y1="0%" y2="100%">
   <stop id="stop28" offset="0%" style="stop-color:#FF8501"/>
   <stop id="stop30" offset="100%" style="stop-color:#FFCB01"/>
  </linearGradient>
  <linearGradient id="telinkrin" x1="0%" x2="0%" y1="0%" y2="100%">
   <stop id="stop33" offset="0%" style="stop-color:#b2ced6"/>
   <stop id="stop35" offset="100%" style="stop-color:#6da5b7"/>
  </linearGradient>
  <linearGradient id="60spsycho" x1="0%" x2="0%" y1="0%" y2="100%">
   <stop id="stop38" offset="0%" style="stop-color:#df5940"/>
   <stop id="stop40" offset="25%" style="stop-color:#d8d15f"/>
   <stop id="stop42" offset="50%" style="stop-color:#e9882a"/>
   <stop id="stop44" offset="100%" style="stop-color:#279362"/>
  </linearGradient>
  <linearGradient id="90ssummer" x1="0%" x2="0%" y1="0%" y2="100%">
   <stop id="stop47" offset="0%" style="stop-color:#f618c7"/>
   <stop id="stop49" offset="20%" style="stop-color:#94ffab"/>
   <stop id="stop51" offset="50%" style="stop-color:#fbfd54"/>
   <stop id="stop53" offset="100%" style="stop-color:#0f83ae"/>
  </linearGradient>
  <linearGradient id="cyberneon" x1="0%" x2="0%" y1="0%" y2="100%">
   <stop id="stop56" offset="0" style="stop-color:#0abdc6"/>
   <stop id="stop58" offset="1" style="stop-color:#ea00d9"/>
  </linearGradient>
 </defs>
 <path fill="currentColor" class="ColorScheme-Text" d="M 7.7246094 0 C 5.8906784 0 4.4140625 0.73733137 4.4140625 1.6542969 L 4.4140625 3.3105469 L 4.4140625 3.8613281 L 7.7246094 3.8613281 L 7.7246094 4.4140625 L 4.4140625 4.4140625 L 3.8613281 4.4140625 L 3.3105469 4.4140625 L 1.6542969 4.4140625 C 0.73733143 4.4140625 -1.4802974e-16 5.8906784 0 7.7246094 L 0 8.2753906 C 0 10.109322 0.73733142 11.585937 1.6542969 11.585938 L 3.3105469 11.585938 L 3.8613281 11.585938 L 3.8613281 9.9316406 C 3.8613281 9.9316406 3.8614629 7.7246094 6.0683594 7.7246094 L 10.482422 7.7246094 C 10.482422 7.7246094 11.585938 7.7245419 11.585938 6.6210938 L 11.585938 4.4140625 L 11.585938 3.3105469 L 11.585938 1.6542969 C 11.585938 0.73733137 10.109322 1.4802974e-16 8.2753906 0 L 7.7246094 0 z M 6.0683594 1.1035156 C 6.3730684 1.1035156 6.6210938 1.3495879 6.6210938 1.6542969 C 6.6210938 1.9590058 6.3730684 2.2070313 6.0683594 2.2070312 C 5.7636504 2.2070312 5.5175781 1.9590058 5.5175781 1.6542969 C 5.5175781 1.3495879 5.7636504 1.1035156 6.0683594 1.1035156 z M 12.138672 4.4140625 L 12.138672 6.6210938 C 12.138672 8.2762661 10.482422 8.2753906 10.482422 8.2753906 L 6.0683594 8.2753906 C 4.413187 8.2753906 4.4140625 9.9316406 4.4140625 9.9316406 L 4.4140625 11.585938 L 4.4140625 12.689453 L 4.4140625 14.345703 C 4.4140625 15.262669 5.8906784 16 7.7246094 16 L 8.2753906 16 C 10.109322 16 11.585938 15.262669 11.585938 14.345703 L 11.585938 12.689453 L 11.585938 12.138672 L 8.2753906 12.138672 L 8.2753906 11.585938 L 11.585938 11.585938 L 12.138672 11.585938 L 12.689453 11.585938 L 14.345703 11.585938 C 15.262668 11.585938 16 10.109322 16 8.2753906 L 16 7.7246094 C 16 5.8906784 15.262668 4.4140625 14.345703 4.4140625 L 12.689453 4.4140625 L 12.138672 4.4140625 z M 9.9316406 13.242188 C 10.23635 13.242188 10.482422 13.48826 10.482422 13.792969 C 10.482422 14.097678 10.23635 14.345703 9.9316406 14.345703 C 9.6269317 14.345703 9.3789063 14.097678 9.3789062 13.792969 C 9.3789062 13.48826 9.6269317 13.242188 9.9316406 13.242188 z"/>
</svg>
